X: 36597
T: Shamrock, The
R: strathspey
M: 4/4
K: Ddorian
|:(3FGA|d>cA>B c>B (3cBA|G>E (3EEE c>EG>c|(3ddc A>B c2- c>A|G>Ec<E D2:|
F>G|A>d (3ddd A>d (3fed|c>de>f g2 (3fed|A>d (3dd^c d>fe>d|e>dc>B c>A (3EFG|
A>dF>d A>d (3fed|c2 (3def g2 (3fed|a>fg>e (3fed e>c|A<dd>^c d2||

